home/.icons/Gruvbox-Plus-Dark/emotes/symbolic/face-devilish-symbolic.svg

<svg width="16" height="16" version="1.1" xmlns="http://www.w3.org/2000/svg">
  <defs>
    <style type="text/css" id="current-color-scheme">.ColorScheme-Text { color:#ebdbb2; } .ColorScheme-Highlight { color:#458588; }</style>
  </defs>
  <path class="ColorScheme-Text" fill="currentColor" d="m1 1 0.8965 3.588a7 7 0 0 0-0.8965 3.412 7 7 0 0 0 7 7 7 7 0 0 0 7-7 7 7 0 0 0-0.896-3.418l0.896-3.582-2.807 1.404a7 7 0 0 0-4.193-1.404 7 7 0 0 0-4.191 1.404zm1.881 4.43c0.04-0.01 0.0898 0 0.0898 0l3.719 0.5312c0.33 0.29 0.2505 0.7491 0.0605 1.039h-1.75c0.55 0 1 0.45 1 1s-0.45 1-1 1-1-0.45-1-1 0.45-1 1-1h-2.119s-0.4802-0.4407-0.4102-0.9707c0.05-0.4 0.2802-0.5496 0.4102-0.5996zm10.15 0s0.44 0.0696 0.5 0.5996c0.07 0.53-0.398 0.9707-0.398 0.9707h-2.131c0.55 0 1 0.45 1 1s-0.45 1-1 1-1-0.45-1-1 0.45-1 1-1h-1.75c-0.19-0.29-0.2695-0.7491 0.0605-1.039zm-7.859 5.4c0.75 0.75 1.77 1.17 2.83 1.17s2.08-0.42 2.83-1.17l0.699 0.699c-0.93 0.94-2.199 1.471-3.529 1.471s-2.599-0.531-3.529-1.471z"/>
</svg>

<svg xmlns="http://www.w3.org/2000/svg" width="16" height="16" version="1.1">
 <path style="fill:#ebdbb2" d="M 1,1 1.8965,4.5879 A 7,7 0 0 0 1,8 7,7 0 0 0 8,15 7,7 0 0 0 15,8 7,7 0 0 0 14.104,4.582 L 15,1 12.193,2.4043 A 7,7 0 0 0 8,1 7,7 0 0 0 3.8086,2.4043 Z M 2.8809,5.4297 C 2.9209,5.4197 2.9707,5.4297 2.9707,5.4297 L 6.6895,5.9609 C 7.0195,6.2509 6.94,6.71 6.75,7 H 5 C 5.55,7 6,7.45 6,8 6,8.55 5.55,9 5,9 4.45,9 4,8.55 4,8 4,7.45 4.45,7 5,7 H 2.8809 C 2.8809,7 2.4007,6.5593 2.4707,6.0293 2.5207,5.6293 2.7509,5.4797 2.8809,5.4297 Z M 13.029,5.4297 C 13.029,5.4297 13.469,5.4993 13.529,6.0293 13.599,6.5593 13.131,7 13.131,7 H 11 C 11.55,7 12,7.45 12,8 12,8.55 11.55,9 11,9 10.45,9 10,8.55 10,8 10,7.45 10.45,7 11,7 H 9.25 C 9.06,6.71 8.9805,6.2509 9.3105,5.9609 Z M 5.1699,10.83 C 5.9199,11.58 6.94,12 8,12 9.06,12 10.08,11.58 10.83,10.83 L 11.529,11.529 C 10.599,12.469 9.33,13 8,13 6.67,13 5.4007,12.469 4.4707,11.529 Z"/>
</svg>
